; --- Synthetic 3D wave air carve — no STL; GRBL-ready dry run.
; Assume G54: Z0 = spoilboard/tool touch-off TOP; +Z = UP (bit away from deck). Never negative Z.
; Clamp: every Z stays between 22 and 30 mm.
; Spindle stays OFF.
G90 G21 G17 G94
M5
G0 Z48 F1800
G0 X90 Y100 F3400
G1 X90 Y100 Z27.316 F3400
G1 X100 Y100 Z29.007 F3400
G1 X110 Y100 Z30 F3400
G1 X120 Y100 Z30 F3400
G1 X130 Y100 Z27.013 F3400
G1 X140 Y100 Z23.707 F3400
G1 X150 Y100 Z25.353 F3400
G1 X160 Y100 Z30 F3400
G1 X170 Y100 Z30 F3400
G1 X180 Y100 Z30 F3400
G1 X190 Y100 Z27.016 F3400
G1 X200 Y100 Z24.847 F3400
G1 X210 Y100 Z26.932 F3400
G1 X220 Y100 Z29.849 F3400
G1 X230 Y100 Z29.937 F3400
G1 X240 Y100 Z27.935 F3400
G1 X250 Y100 Z27.52 F3400
G1 X260 Y100 Z29.93 F3400
G1 X270 Y100 Z30 F3400
G1 X280 Y100 Z30 F3400
G1 X280 Y111 Z30 F3400
G1 X270 Y111 Z30 F3400
G1 X260 Y111 Z30 F3400
G1 X250 Y111 Z28.722 F3400
G1 X240 Y111 Z29.18 F3400
G1 X230 Y111 Z30 F3400
G1 X220 Y111 Z30 F3400
G1 X210 Y111 Z28.089 F3400
G1 X200 Y111 Z25.946 F3400
G1 X190 Y111 Z28.103 F3400
G1 X180 Y111 Z30 F3400
G1 X170 Y111 Z30 F3400
G1 X160 Y111 Z30 F3400
G1 X150 Y111 Z26.697 F3400
G1 X140 Y111 Z24.969 F3400
G1 X130 Y111 Z28.098 F3400
G1 X120 Y111 Z30 F3400
G1 X110 Y111 Z30 F3400
G1 X100 Y111 Z29.812 F3400
G1 X90 Y111 Z28.648 F3400
G1 X90 Y122 Z23.665 F3400
G1 X100 Y122 Z24.794 F3400
G1 X110 Y122 Z27.515 F3400
G1 X120 Y122 Z27.621 F3400
G1 X130 Y122 Z24.305 F3400
G1 X140 Y122 Z22 F3400
G1 X150 Y122 Z23.514 F3400
G1 X160 Y122 Z28.629 F3400
G1 X170 Y122 Z30 F3400
G1 X180 Y122 Z29.087 F3400
G1 X190 Y122 Z24.137 F3400
G1 X200 Y122 Z22.038 F3400
G1 X210 Y122 Z24.36 F3400
G1 X220 Y122 Z27.527 F3400
G1 X230 Y122 Z27.74 F3400
G1 X240 Y122 Z25.686 F3400
G1 X250 Y122 Z25.093 F3400
G1 X260 Y122 Z27.314 F3400
G1 X270 Y122 Z29.242 F3400
G1 X280 Y122 Z27.443 F3400
G1 X280 Y133 Z25.118 F3400
G1 X270 Y133 Z26.837 F3400
G1 X260 Y133 Z24.998 F3400
G1 X250 Y133 Z23 F3400
G1 X240 Y133 Z23.827 F3400
G1 X230 Y133 Z25.983 F3400
G1 X220 Y133 Z25.658 F3400
G1 X210 Y133 Z22.205 F3400
G1 X200 Y133 Z22 F3400
G1 X190 Y133 Z22 F3400
G1 X180 Y133 Z26.596 F3400
G1 X170 Y133 Z29.426 F3400
G1 X160 Y133 Z26.988 F3400
G1 X150 Y133 Z22.174 F3400
G1 X140 Y133 Z22 F3400
G1 X130 Y133 Z22.436 F3400
G1 X120 Y133 Z25.026 F3400
G1 X110 Y133 Z24.201 F3400
G1 X100 Y133 Z22 F3400
G1 X90 Y133 Z22 F3400
G1 X90 Y144 Z22 F3400
G1 X100 Y144 Z23.317 F3400
G1 X110 Y144 Z27.029 F3400
G1 X120 Y144 Z28.52 F3400
G1 X130 Y144 Z26.482 F3400
G1 X140 Y144 Z24.467 F3400
G1 X150 Y144 Z26.195 F3400
G1 X160 Y144 Z30 F3400
G1 X170 Y144 Z30 F3400
G1 X180 Y144 Z29.084 F3400
G1 X190 Y144 Z23.984 F3400
G1 X200 Y144 Z22.342 F3400
G1 X210 Y144 Z25.418 F3400
G1 X220 Y144 Z29.21 F3400
G1 X230 Y144 Z29.608 F3400
G1 X240 Y144 Z27.251 F3400
G1 X250 Y144 Z26.087 F3400
G1 X260 Y144 Z27.806 F3400
G1 X270 Y144 Z29.57 F3400
G1 X280 Y144 Z28.002 F3400
G1 X280 Y155 Z30 F3400
G1 X270 Y155 Z30 F3400
G1 X260 Y155 Z30 F3400
G1 X250 Y155 Z28.827 F3400
G1 X240 Y155 Z30 F3400
G1 X230 Y155 Z30 F3400
G1 X220 Y155 Z30 F3400
G1 X210 Y155 Z28.65 F3400
G1 X200 Y155 Z25.045 F3400
G1 X190 Y155 Z26.198 F3400
G1 X180 Y155 Z30 F3400
G1 X170 Y155 Z30 F3400
G1 X160 Y155 Z30 F3400
G1 X150 Y155 Z29.753 F3400
G1 X140 Y155 Z28.587 F3400
G1 X130 Y155 Z30 F3400
G1 X120 Y155 Z30 F3400
G1 X110 Y155 Z30 F3400
G1 X100 Y155 Z26.903 F3400
G1 X90 Y155 Z25.305 F3400
G1 X90 Y166 Z24.616 F3400
G1 X100 Y166 Z26.235 F3400
G1 X110 Y166 Z30 F3400
G1 X120 Y166 Z30 F3400
G1 X130 Y166 Z29.739 F3400
G1 X140 Y166 Z26.909 F3400
G1 X150 Y166 Z27.339 F3400
G1 X160 Y166 Z30 F3400
G1 X170 Y166 Z30 F3400
G1 X180 Y166 Z27.73 F3400
G1 X190 Y166 Z23.28 F3400
G1 X200 Y166 Z22.761 F3400
G1 X210 Y166 Z26.885 F3400
G1 X220 Y166 Z30 F3400
G1 X230 Y166 Z30 F3400
G1 X240 Y166 Z28.131 F3400
G1 X250 Y166 Z26.062 F3400
G1 X260 Y166 Z27.255 F3400
G1 X270 Y166 Z29.112 F3400
G1 X280 Y166 Z28.157 F3400
G1 X280 Y177 Z24.648 F3400
G1 X270 Y177 Z25.127 F3400
G1 X260 Y177 Z23.003 F3400
G1 X250 Y177 Z22 F3400
G1 X240 Y177 Z24.43 F3400
G1 X230 Y177 Z28.182 F3400
G1 X220 Y177 Z28.482 F3400
G1 X210 Y177 Z24.267 F3400
G1 X200 Y177 Z22 F3400
G1 X190 Y177 Z22 F3400
G1 X180 Y177 Z23.422 F3400
G1 X170 Y177 Z26.375 F3400
G1 X160 Y177 Z25.46 F3400
G1 X150 Y177 Z22.928 F3400
G1 X140 Y177 Z23.105 F3400
G1 X130 Y177 Z26.6 F3400
G1 X120 Y177 Z29.415 F3400
G1 X110 Y177 Z28.091 F3400
G1 X100 Y177 Z24.261 F3400
G1 X90 Y177 Z22.707 F3400
G1 X90 Y188 Z24.556 F3400
G1 X100 Y188 Z26.02 F3400
G1 X110 Y188 Z29.59 F3400
G1 X120 Y188 Z30 F3400
G1 X130 Y188 Z27.235 F3400
G1 X140 Y188 Z23.331 F3400
G1 X150 Y188 Z22.945 F3400
G1 X160 Y188 Z25.587 F3400
G1 X170 Y188 Z26.955 F3400
G1 X180 Y188 Z24.695 F3400
G1 X190 Y188 Z22 F3400
G1 X200 Y188 Z22.245 F3400
G1 X210 Y188 Z26.801 F3400
G1 X220 Y188 Z30 F3400
G1 X230 Y188 Z29.737 F3400
G1 X240 Y188 Z25.387 F3400
G1 X250 Y188 Z22.562 F3400
G1 X260 Y188 Z23.755 F3400
G1 X270 Y188 Z26.323 F3400
G1 X280 Y188 Z26.392 F3400
G1 X280 Y199 Z30 F3400
G1 X270 Y199 Z30 F3400
G1 X260 Y199 Z27.08 F3400
G1 X250 Y199 Z25.534 F3400
G1 X240 Y199 Z28.424 F3400
G1 X230 Y199 Z30 F3400
G1 X220 Y199 Z30 F3400
G1 X210 Y199 Z30 F3400
G1 X200 Y199 Z27.357 F3400
G1 X190 Y199 Z26.619 F3400
G1 X180 Y199 Z29.178 F3400
G1 X170 Y199 Z30 F3400
G1 X160 Y199 Z28.662 F3400
G1 X150 Y199 Z25.499 F3400
G1 X140 Y199 Z25.619 F3400
G1 X130 Y199 Z29.492 F3400
G1 X120 Y199 Z30 F3400
G1 X110 Y199 Z30 F3400
G1 X100 Y199 Z28.719 F3400
G1 X90 Y199 Z27.308 F3400
G1 X90 Y210 Z24.988 F3400
G1 X100 Y210 Z26.407 F3400
G1 X110 Y210 Z29.876 F3400
G1 X120 Y210 Z30 F3400
G1 X130 Y210 Z27.57 F3400
G1 X140 Y210 Z24.097 F3400
G1 X150 Y210 Z24.541 F3400
G1 X160 Y210 Z28.365 F3400
G1 X170 Y210 Z30 F3400
G1 X180 Y210 Z29.943 F3400
G1 X190 Y210 Z27.473 F3400
G1 X200 Y210 Z27.905 F3400
G1 X210 Y210 Z30 F3400
G1 X220 Y210 Z30 F3400
G1 X230 Y210 Z30 F3400
G1 X240 Y210 Z26.866 F3400
G1 X250 Y210 Z24.226 F3400
G1 X260 Y210 Z26.347 F3400
G1 X270 Y210 Z30 F3400
G1 X280 Y210 Z30 F3400
G1 X280 Y221 Z28.125 F3400
G1 X270 Y221 Z26.907 F3400
G1 X260 Y221 Z22.554 F3400
G1 X250 Y221 Z22 F3400
G1 X240 Y221 Z22 F3400
G1 X230 Y221 Z26.671 F3400
G1 X220 Y221 Z29.101 F3400
G1 X210 Y221 Z27.192 F3400
G1 X200 Y221 Z24.296 F3400
G1 X190 Y221 Z24.504 F3400
G1 X180 Y221 Z27.346 F3400
G1 X170 Y221 Z28.502 F3400
G1 X160 Y221 Z25.541 F3400
G1 X150 Y221 Z22 F3400
G1 X140 Y221 Z22 F3400
G1 X130 Y221 Z23.262 F3400
G1 X120 Y221 Z26.026 F3400
G1 X110 Y221 Z24.882 F3400
G1 X100 Y221 Z22 F3400
G1 X90 Y221 Z22 F3400
G1 X90 Y232 Z22 F3400
G1 X100 Y232 Z22 F3400
G1 X110 Y232 Z24.887 F3400
G1 X120 Y232 Z26.28 F3400
G1 X130 Y232 Z23.817 F3400
G1 X140 Y232 Z22 F3400
G1 X150 Y232 Z22.306 F3400
G1 X160 Y232 Z26.614 F3400
G1 X170 Y232 Z29.359 F3400
G1 X180 Y232 Z27.729 F3400
G1 X190 Y232 Z24.221 F3400
G1 X200 Y232 Z23.297 F3400
G1 X210 Y232 Z25.619 F3400
G1 X220 Y232 Z27.274 F3400
G1 X230 Y232 Z25.004 F3400
G1 X240 Y232 Z22 F3400
G1 X250 Y232 Z22 F3400
G1 X260 Y232 Z22.763 F3400
G1 X270 Y232 Z27.425 F3400
G1 X280 Y232 Z28.509 F3400
G1 X280 Y243 Z30 F3400
G1 X270 Y243 Z30 F3400
G1 X260 Y243 Z27.779 F3400
G1 X250 Y243 Z23.954 F3400
G1 X240 Y243 Z24.666 F3400
G1 X230 Y243 Z28.247 F3400
G1 X220 Y243 Z29.973 F3400
G1 X210 Y243 Z28.111 F3400
G1 X200 Y243 Z25.962 F3400
G1 X190 Y243 Z27.363 F3400
G1 X180 Y243 Z30 F3400
G1 X170 Y243 Z30 F3400
G1 X160 Y243 Z30 F3400
G1 X150 Y243 Z27.685 F3400
G1 X140 Y243 Z26.718 F3400
G1 X130 Y243 Z29.469 F3400
G1 X120 Y243 Z30 F3400
G1 X110 Y243 Z30 F3400
G1 X100 Y243 Z26.604 F3400
G1 X90 Y243 Z25.054 F3400
G1 X90 Y254 Z28.296 F3400
G1 X100 Y254 Z29.823 F3400
G1 X110 Y254 Z30 F3400
G1 X120 Y254 Z30 F3400
G1 X130 Y254 Z30 F3400
G1 X140 Y254 Z29.154 F3400
G1 X150 Y254 Z29.667 F3400
G1 X160 Y254 Z30 F3400
G1 X170 Y254 Z30 F3400
G1 X180 Y254 Z30 F3400
G1 X190 Y254 Z27.441 F3400
G1 X200 Y254 Z26.019 F3400
G1 X210 Y254 Z28.474 F3400
G1 X220 Y254 Z30 F3400
G1 X230 Y254 Z29.928 F3400
G1 X240 Y254 Z27.011 F3400
G1 X250 Y254 Z26.689 F3400
G1 X260 Y254 Z30 F3400
G1 X270 Y254 Z30 F3400
G1 X280 Y254 Z30 F3400
G1 X280 Y265 Z30 F3400
G1 X270 Y265 Z30 F3400
G1 X260 Y265 Z27.825 F3400
G1 X250 Y265 Z24.45 F3400
G1 X240 Y265 Z24.816 F3400
G1 X230 Y265 Z27.39 F3400
G1 X220 Y265 Z27.77 F3400
G1 X210 Y265 Z24.607 F3400
G1 X200 Y265 Z22 F3400
G1 X190 Y265 Z22.506 F3400
G1 X180 Y265 Z26.79 F3400
G1 X170 Y265 Z29.643 F3400
G1 X160 Y265 Z28.277 F3400
G1 X150 Y265 Z25.261 F3400
G1 X140 Y265 Z25.148 F3400
G1 X130 Y265 Z28.611 F3400
G1 X120 Y265 Z30 F3400
G1 X110 Y265 Z30 F3400
G1 X100 Y265 Z26.856 F3400
G1 X90 Y265 Z25.373 F3400
G0 Z60 F1800
G0 X90 Y100
M5
M30
