; complex air-dry spirograph (machine coords, G53 per motion)
; SPINDLE STAYS OFF. Z fixed at MPos -15.00 the entire job (~36 mm above deck).
; Travel guard: X[-360,-40] Y[-340,-40], Z>=-45.
G21 G90 G17 G94
M5
G53 G0 Z-1
G53 G0 X-200.000 Y-190.000 F4500
G53 G1 Z-15.000 F2000
G53 G1 X-330.000 Y-320.000 F4200
G53 G1 X-70.000 Y-320.000 F4200
G53 G1 X-70.000 Y-60.000 F4200
G53 G1 X-330.000 Y-60.000 F4200
G53 G1 X-330.000 Y-320.000 F4200
G53 G0 X-40.000 Y-190.000
G53 G1 X-40.000 Y-194.831 F4200
G53 G1 X-40.000 Y-199.559 F4200
G53 G1 X-42.476 Y-204.080 F4200
G53 G1 X-46.672 Y-208.296 F4200
G53 G1 X-51.989 Y-212.110 F4200
G53 G1 X-58.367 Y-215.434 F4200
G53 G1 X-65.738 Y-218.184 F4200
G53 G1 X-74.021 Y-220.285 F4200
G53 G1 X-83.127 Y-221.670 F4200
G53 G1 X-92.959 Y-222.285 F4200
G53 G1 X-103.409 Y-222.082 F4200
G53 G1 X-114.368 Y-221.028 F4200
G53 G1 X-125.719 Y-219.102 F4200
G53 G1 X-137.342 Y-216.292 F4200
G53 G1 X-149.118 Y-212.602 F4200
G53 G1 X-160.924 Y-208.047 F4200
G53 G1 X-172.641 Y-202.654 F4200
G53 G1 X-184.150 Y-196.463 F4200
G53 G1 X-195.340 Y-189.527 F4200
G53 G1 X-206.100 Y-181.907 F4200
G53 G1 X-216.331 Y-173.677 F4200
G53 G1 X-225.938 Y-164.919 F4200
G53 G1 X-234.837 Y-155.725 F4200
G53 G1 X-242.954 Y-146.193 F4200
G53 G1 X-250.223 Y-136.429 F4200
G53 G1 X-256.594 Y-126.542 F4200
G53 G1 X-262.026 Y-116.645 F4200
G53 G1 X-266.491 Y-106.855 F4200
G53 G1 X-269.975 Y-97.288 F4200
G53 G1 X-272.474 Y-88.059 F4200
G53 G1 X-273.999 Y-79.282 F4200
G53 G1 X-274.575 Y-71.067 F4200
G53 G1 X-274.234 Y-63.518 F4200
G53 G1 X-273.026 Y-56.735 F4200
G53 G1 X-271.006 Y-50.808 F4200
G53 G1 X-268.242 Y-45.819 F4200
G53 G1 X-264.812 Y-41.841 F4200
G53 G1 X-260.799 Y-40.000 F4200
G53 G1 X-256.295 Y-40.000 F4200
G53 G1 X-251.396 Y-40.000 F4200
G53 G1 X-246.205 Y-40.000 F4200
G53 G1 X-240.824 Y-40.000 F4200
G53 G1 X-235.359 Y-41.801 F4200
G53 G1 X-229.915 Y-45.936 F4200
G53 G1 X-224.596 Y-51.224 F4200
G53 G1 X-219.504 Y-57.623 F4200
G53 G1 X-214.733 Y-65.081 F4200
G53 G1 X-210.377 Y-73.533 F4200
G53 G1 X-206.519 Y-82.901 F4200
G53 G1 X-203.235 Y-93.099 F4200
G53 G1 X-200.593 Y-104.031 F4200
G53 G1 X-198.652 Y-115.594 F4200
G53 G1 X-197.456 Y-127.677 F4200
G53 G1 X-197.044 Y-140.163 F4200
G53 G1 X-197.437 Y-152.932 F4200
G53 G1 X-198.648 Y-165.861 F4200
G53 G1 X-200.676 Y-178.826 F4200
G53 G1 X-203.508 Y-191.701 F4200
G53 G1 X-207.119 Y-204.366 F4200
G53 G1 X-211.470 Y-216.701 F4200
G53 G1 X-216.514 Y-228.591 F4200
G53 G1 X-222.190 Y-239.927 F4200
G53 G1 X-228.428 Y-250.607 F4200
G53 G1 X-235.150 Y-260.540 F4200
G53 G1 X-242.267 Y-269.639 F4200
G53 G1 X-249.685 Y-277.834 F4200
G53 G1 X-257.304 Y-285.060 F4200
G53 G1 X-265.018 Y-291.268 F4200
G53 G1 X-272.718 Y-296.421 F4200
G53 G1 X-280.295 Y-300.493 F4200
G53 G1 X-287.637 Y-303.473 F4200
G53 G1 X-294.635 Y-305.361 F4200
G53 G1 X-301.181 Y-306.173 F4200
G53 G1 X-307.171 Y-305.934 F4200
G53 G1 X-312.508 Y-304.684 F4200
G53 G1 X-317.098 Y-302.474 F4200
G53 G1 X-320.859 Y-299.366 F4200
G53 G1 X-323.715 Y-295.431 F4200
G53 G1 X-325.600 Y-290.750 F4200
G53 G1 X-326.461 Y-285.412 F4200
G53 G1 X-326.253 Y-279.514 F4200
G53 G1 X-324.947 Y-273.155 F4200
G53 G1 X-322.525 Y-266.442 F4200
G53 G1 X-318.981 Y-259.482 F4200
G53 G1 X-314.323 Y-252.385 F4200
G53 G1 X-308.572 Y-245.259 F4200
G53 G1 X-301.764 Y-238.213 F4200
G53 G1 X-293.944 Y-231.351 F4200
G53 G1 X-285.171 Y-224.773 F4200
G53 G1 X-275.517 Y-218.574 F4200
G53 G1 X-265.061 Y-212.842 F4200
G53 G1 X-253.896 Y-207.656 F4200
G53 G1 X-242.120 Y-203.087 F4200
G53 G1 X-229.841 Y-199.195 F4200
G53 G1 X-217.173 Y-196.032 F4200
G53 G1 X-204.233 Y-193.634 F4200
G53 G1 X-191.145 Y-192.030 F4200
G53 G1 X-178.031 Y-191.233 F4200
G53 G1 X-165.018 Y-191.245 F4200
G53 G1 X-152.228 Y-192.058 F4200
G53 G1 X-139.784 Y-193.647 F4200
G53 G1 X-127.804 Y-195.979 F4200
G53 G1 X-116.401 Y-199.007 F4200
G53 G1 X-105.681 Y-202.677 F4200
G53 G1 X-95.743 Y-206.920 F4200
G53 G1 X-86.676 Y-211.661 F4200
G53 G1 X-78.561 Y-216.817 F4200
G53 G1 X-71.466 Y-222.296 F4200
G53 G1 X-65.450 Y-228.002 F4200
G53 G1 X-60.556 Y-233.833 F4200
G53 G1 X-56.818 Y-239.686 F4200
G53 G1 X-54.255 Y-245.454 F4200
G53 G1 X-52.872 Y-251.032 F4200
G53 G1 X-52.663 Y-256.313 F4200
G53 G1 X-53.606 Y-261.195 F4200
G53 G1 X-55.668 Y-265.581 F4200
G53 G1 X-58.804 Y-269.375 F4200
G53 G1 X-62.956 Y-272.492 F4200
G53 G1 X-68.056 Y-274.852 F4200
G53 G1 X-74.025 Y-276.385 F4200
G53 G1 X-80.776 Y-277.031 F4200
G53 G1 X-88.214 Y-276.740 F4200
G53 G1 X-96.237 Y-275.475 F4200
G53 G1 X-104.738 Y-273.209 F4200
G53 G1 X-113.605 Y-269.928 F4200
G53 G1 X-122.725 Y-265.632 F4200
G53 G1 X-131.982 Y-260.333 F4200
G53 G1 X-141.264 Y-254.056 F4200
G53 G1 X-150.456 Y-246.839 F4200
G53 G1 X-159.451 Y-238.731 F4200
G53 G1 X-168.142 Y-229.794 F4200
G53 G1 X-176.432 Y-220.101 F4200
G53 G1 X-184.228 Y-209.735 F4200
G53 G1 X-191.447 Y-198.787 F4200
G53 G1 X-198.015 Y-187.359 F4200
G53 G1 X-203.869 Y-175.557 F4200
G53 G1 X-208.955 Y-163.495 F4200
G53 G1 X-213.231 Y-151.291 F4200
G53 G1 X-216.669 Y-139.065 F4200
G53 G1 X-219.252 Y-126.940 F4200
G53 G1 X-220.974 Y-115.037 F4200
G53 G1 X-221.844 Y-103.478 F4200
G53 G1 X-221.882 Y-92.381 F4200
G53 G1 X-221.121 Y-81.860 F4200
G53 G1 X-219.603 Y-72.023 F4200
G53 G1 X-217.384 Y-62.971 F4200
G53 G1 X-214.528 Y-54.798 F4200
G53 G1 X-211.109 Y-47.587 F4200
G53 G1 X-207.208 Y-41.412 F4200
G53 G1 X-202.915 Y-40.000 F4200
G53 G1 X-198.324 Y-40.000 F4200
G53 G1 X-193.534 Y-40.000 F4200
G53 G1 X-188.647 Y-40.000 F4200
G53 G1 X-183.767 Y-40.000 F4200
G53 G1 X-178.998 Y-40.000 F4200
G53 G1 X-174.442 Y-40.000 F4200
G53 G1 X-170.201 Y-40.000 F4200
G53 G1 X-166.370 Y-40.000 F4200
G53 G1 X-163.040 Y-44.091 F4200
G53 G1 X-160.296 Y-50.620 F4200
G53 G1 X-158.214 Y-58.089 F4200
G53 G1 X-156.863 Y-66.413 F4200
G53 G1 X-156.300 Y-75.497 F4200
G53 G1 X-156.574 Y-85.239 F4200
G53 G1 X-157.720 Y-95.531 F4200
G53 G1 X-159.762 Y-106.258 F4200
G53 G1 X-162.713 Y-117.304 F4200
G53 G1 X-166.572 Y-128.549 F4200
G53 G1 X-171.326 Y-139.872 F4200
G53 G1 X-176.949 Y-151.156 F4200
G53 G1 X-183.403 Y-162.282 F4200
G53 G1 X-190.638 Y-173.138 F4200
G53 G1 X-198.593 Y-183.614 F4200
G53 G1 X-207.195 Y-193.609 F4200
G53 G1 X-216.364 Y-203.028 F4200
G53 G1 X-226.008 Y-211.785 F4200
G53 G1 X-236.029 Y-219.804 F4200
G53 G1 X-246.323 Y-227.019 F4200
G53 G1 X-256.777 Y-233.376 F4200
G53 G1 X-267.280 Y-238.832 F4200
G53 G1 X-277.713 Y-243.357 F4200
G53 G1 X-287.958 Y-246.933 F4200
G53 G1 X-297.899 Y-249.555 F4200
G53 G1 X-307.420 Y-251.232 F4200
G53 G1 X-316.408 Y-251.984 F4200
G53 G1 X-324.755 Y-251.842 F4200
G53 G1 X-332.360 Y-250.851 F4200
G53 G1 X-339.128 Y-249.066 F4200
G53 G1 X-344.973 Y-246.552 F4200
G53 G1 X-349.819 Y-243.383 F4200
G53 G1 X-353.600 Y-239.643 F4200
G53 G1 X-356.261 Y-235.419 F4200
G53 G1 X-357.761 Y-230.808 F4200
G53 G1 X-358.070 Y-225.910 F4200
G53 G1 X-357.171 Y-220.826 F4200
G53 G1 X-355.061 Y-215.662 F4200
G53 G1 X-351.750 Y-210.521 F4200
G53 G1 X-347.262 Y-205.509 F4200
G53 G1 X-341.633 Y-200.724 F4200
G53 G1 X-334.912 Y-196.265 F4200
G53 G1 X-327.161 Y-192.222 F4200
G53 G1 X-318.453 Y-188.682 F4200
G53 G1 X-308.870 Y-185.720 F4200
G53 G1 X-298.505 Y-183.407 F4200
G53 G1 X-287.459 Y-181.799 F4200
G53 G1 X-275.841 Y-180.947 F4200
G53 G1 X-263.765 Y-180.887 F4200
G53 G1 X-251.349 Y-181.644 F4200
G53 G1 X-238.715 Y-183.231 F4200
G53 G1 X-225.987 Y-185.649 F4200
G53 G1 X-213.289 Y-188.887 F4200
G53 G1 X-200.742 Y-192.920 F4200
G53 G1 X-188.468 Y-197.712 F4200
G53 G1 X-176.580 Y-203.216 F4200
G53 G1 X-165.189 Y-209.372 F4200
G53 G1 X-154.399 Y-216.112 F4200
G53 G1 X-144.305 Y-223.357 F4200
G53 G1 X-134.992 Y-231.020 F4200
G53 G1 X-126.536 Y-239.005 F4200
G53 G1 X-119.003 Y-247.212 F4200
G53 G1 X-112.446 Y-255.536 F4200
G53 G1 X-106.905 Y-263.866 F4200
G53 G1 X-102.409 Y-272.091 F4200
G53 G1 X-98.974 Y-280.099 F4200
G53 G1 X-96.602 Y-287.778 F4200
G53 G1 X-95.282 Y-295.019 F4200
G53 G1 X-94.991 Y-301.714 F4200
G53 G1 X-95.693 Y-307.764 F4200
G53 G1 X-97.342 Y-313.072 F4200
G53 G1 X-99.878 Y-317.553 F4200
G53 G1 X-103.233 Y-321.126 F4200
G53 G1 X-107.330 Y-323.724 F4200
G53 G1 X-112.082 Y-325.287 F4200
G53 G1 X-117.396 Y-325.769 F4200
G53 G1 X-123.173 Y-325.135 F4200
G53 G1 X-129.310 Y-323.362 F4200
G53 G1 X-135.702 Y-320.442 F4200
G53 G1 X-142.239 Y-316.379 F4200
G53 G1 X-148.815 Y-311.190 F4200
G53 G1 X-155.322 Y-304.905 F4200
G53 G1 X-161.656 Y-297.567 F4200
G53 G1 X-167.718 Y-289.233 F4200
G53 G1 X-173.413 Y-279.968 F4200
G53 G1 X-178.653 Y-269.852 F4200
G53 G1 X-183.357 Y-258.973 F4200
G53 G1 X-187.455 Y-247.428 F4200
G53 G1 X-190.885 Y-235.322 F4200
G53 G1 X-193.595 Y-222.767 F4200
G53 G1 X-195.547 Y-209.881 F4200
G53 G1 X-196.712 Y-196.784 F4200
G53 G1 X-197.074 Y-183.602 F4200
G53 G1 X-196.630 Y-170.458 F4200
G53 G1 X-195.388 Y-157.478 F4200
G53 G1 X-193.370 Y-144.784 F4200
G53 G1 X-190.608 Y-132.496 F4200
G53 G1 X-187.148 Y-120.728 F4200
G53 G1 X-183.045 Y-109.589 F4200
G53 G1 X-178.365 Y-99.180 F4200
G53 G1 X-173.182 Y-89.594 F4200
G53 G1 X-167.580 Y-80.914 F4200
G53 G1 X-161.650 Y-73.213 F4200
G53 G1 X-155.488 Y-66.552 F4200
G53 G1 X-149.196 Y-60.979 F4200
G53 G1 X-142.879 Y-56.532 F4200
G53 G1 X-136.643 Y-53.233 F4200
G53 G1 X-130.597 Y-51.094 F4200
G53 G1 X-124.846 Y-50.110 F4200
G53 G1 X-119.495 Y-50.266 F4200
G53 G1 X-114.645 Y-51.533 F4200
G53 G1 X-110.391 Y-53.869 F4200
G53 G1 X-106.823 Y-57.221 F4200
G53 G1 X-104.022 Y-61.525 F4200
G53 G1 X-102.062 Y-66.705 F4200
G53 G1 X-101.005 Y-72.678 F4200
G53 G1 X-100.904 Y-79.353 F4200
G53 G1 X-101.801 Y-86.629 F4200
G53 G1 X-103.725 Y-94.404 F4200
G53 G1 X-106.693 Y-102.567 F4200
G53 G1 X-110.709 Y-111.007 F4200
G53 G1 X-115.763 Y-119.611 F4200
G53 G1 X-121.834 Y-128.267 F4200
G53 G1 X-128.887 Y-136.862 F4200
G53 G1 X-136.875 Y-145.288 F4200
G53 G1 X-145.739 Y-153.441 F4200
G53 G1 X-155.409 Y-161.222 F4200
G53 G1 X-165.803 Y-168.539 F4200
G53 G1 X-176.832 Y-175.307 F4200
G53 G1 X-188.395 Y-181.453 F4200
G53 G1 X-200.387 Y-186.911 F4200
G53 G1 X-212.694 Y-191.627 F4200
G53 G1 X-225.200 Y-195.559 F4200
G53 G1 X-237.784 Y-198.674 F4200
G53 G1 X-250.322 Y-200.955 F4200
G53 G1 X-262.691 Y-202.396 F4200
G53 G1 X-274.768 Y-203.002 F4200
G53 G1 X-286.435 Y-202.793 F4200
G53 G1 X-297.574 Y-201.798 F4200
G53 G1 X-308.075 Y-200.060 F4200
G53 G1 X-317.832 Y-197.631 F4200
G53 G1 X-326.751 Y-194.576 F4200
G53 G1 X-334.743 Y-190.966 F4200
G53 G1 X-341.731 Y-186.882 F4200
G53 G1 X-347.649 Y-182.413 F4200
G53 G1 X-352.441 Y-177.652 F4200
G53 G1 X-356.066 Y-172.698 F4200
G53 G1 X-358.494 Y-167.653 F4200
G53 G1 X-359.709 Y-162.620 F4200
G53 G1 X-359.707 Y-157.705 F4200
G53 G1 X-358.501 Y-153.010 F4200
G53 G1 X-356.112 Y-148.638 F4200
G53 G1 X-352.579 Y-144.685 F4200
G53 G1 X-347.950 Y-141.244 F4200
G53 G1 X-342.286 Y-138.401 F4200
G53 G1 X-335.659 Y-136.234 F4200
G53 G1 X-328.151 Y-134.814 F4200
G53 G1 X-319.854 Y-134.201 F4200
G53 G1 X-310.865 Y-134.444 F4200
G53 G1 X-301.292 Y-135.583 F4200
G53 G1 X-291.245 Y-137.642 F4200
G53 G1 X-280.838 Y-140.638 F4200
G53 G1 X-270.190 Y-144.572 F4200
G53 G1 X-259.419 Y-149.433 F4200
G53 G1 X-248.644 Y-155.197 F4200
G53 G1 X-237.980 Y-161.828 F4200
G53 G1 X-227.541 Y-169.279 F4200
G53 G1 X-217.436 Y-177.489 F4200
G53 G1 X-207.766 Y-186.388 F4200
G53 G1 X-198.628 Y-195.896 F4200
G53 G1 X-190.108 Y-205.922 F4200
G53 G1 X-182.285 Y-216.368 F4200
G53 G1 X-175.224 Y-227.131 F4200
G53 G1 X-168.983 Y-238.098 F4200
G53 G1 X-163.606 Y-249.157 F4200
G53 G1 X-159.126 Y-260.188 F4200
G53 G1 X-155.563 Y-271.073 F4200
G53 G1 X-152.923 Y-281.692 F4200
G53 G1 X-151.203 Y-291.928 F4200
G53 G1 X-150.383 Y-301.665 F4200
G53 G1 X-150.434 Y-310.794 F4200
G53 G1 X-151.314 Y-319.210 F4200
G53 G1 X-152.971 Y-326.813 F4200
G53 G1 X-155.341 Y-333.516 F4200
G53 G1 X-158.353 Y-339.237 F4200
G53 G1 X-161.925 Y-340.000 F4200
G53 G1 X-165.971 Y-340.000 F4200
G53 G1 X-170.396 Y-340.000 F4200
G53 G1 X-175.101 Y-340.000 F4200
G53 G1 X-179.986 Y-340.000 F4200
G53 G1 X-184.945 Y-340.000 F4200
G53 G1 X-189.876 Y-340.000 F4200
G53 G1 X-194.674 Y-340.000 F4200
G53 G1 X-199.238 Y-338.986 F4200
G53 G1 X-203.472 Y-333.069 F4200
G53 G1 X-207.284 Y-326.090 F4200
G53 G1 X-210.587 Y-318.117 F4200
G53 G1 X-213.302 Y-309.230 F4200
G53 G1 X-215.361 Y-299.518 F4200
G53 G1 X-216.704 Y-289.079 F4200
G53 G1 X-217.279 Y-278.019 F4200
G53 G1 X-217.049 Y-266.449 F4200
G53 G1 X-215.988 Y-254.487 F4200
G53 G1 X-214.079 Y-242.251 F4200
G53 G1 X-211.321 Y-229.866 F4200
G53 G1 X-207.723 Y-217.453 F4200
G53 G1 X-203.309 Y-205.135 F4200
G53 G1 X-198.113 Y-193.032 F4200
G53 G1 X-192.181 Y-181.259 F4200
G53 G1 X-185.571 Y-169.928 F4200
G53 G1 X-178.352 Y-159.143 F4200
G53 G1 X-170.602 Y-149.000 F4200
G53 G1 X-162.406 Y-139.589 F4200
G53 G1 X-153.861 Y-130.986 F4200
G53 G1 X-145.067 Y-123.259 F4200
G53 G1 X-136.130 Y-116.466 F4200
G53 G1 X-127.161 Y-110.648 F4200
G53 G1 X-118.273 Y-105.838 F4200
G53 G1 X-109.579 Y-102.055 F4200
G53 G1 X-101.194 Y-99.304 F4200
G53 G1 X-93.228 Y-97.578 F4200
G53 G1 X-85.791 Y-96.857 F4200
G53 G1 X-78.987 Y-97.110 F4200
G53 G1 X-72.913 Y-98.291 F4200
G53 G1 X-67.661 Y-100.345 F4200
G53 G1 X-63.312 Y-103.209 F4200
G53 G1 X-59.940 Y-106.805 F4200
G53 G1 X-57.606 Y-111.051 F4200
G53 G1 X-56.363 Y-115.856 F4200
G53 G1 X-56.248 Y-121.124 F4200
G53 G1 X-57.288 Y-126.753 F4200
G53 G1 X-59.497 Y-132.639 F4200
G53 G1 X-62.875 Y-138.676 F4200
G53 G1 X-67.409 Y-144.756 F4200
G53 G1 X-73.073 Y-150.774 F4200
G53 G1 X-79.826 Y-156.625 F4200
G53 G1 X-87.619 Y-162.212 F4200
G53 G1 X-96.386 Y-167.438 F4200
G53 G1 X-106.053 Y-172.216 F4200
G53 G1 X-116.534 Y-176.465 F4200
G53 G1 X-127.735 Y-180.113 F4200
G53 G1 X-139.553 Y-183.098 F4200
G53 G1 X-151.878 Y-185.367 F4200
G53 G1 X-164.594 Y-186.879 F4200
G53 G1 X-177.581 Y-187.606 F4200
G53 G1 X-190.714 Y-187.530 F4200
G53 G1 X-203.871 Y-186.647 F4200
G53 G1 X-216.925 Y-184.963 F4200
G53 G1 X-229.754 Y-182.498 F4200
G53 G1 X-242.236 Y-179.285 F4200
G53 G1 X-254.257 Y-175.367 F4200
G53 G1 X-265.704 Y-170.798 F4200
G53 G1 X-276.476 Y-165.644 F4200
G53 G1 X-286.476 Y-159.978 F4200
G53 G1 X-295.618 Y-153.884 F4200
G53 G1 X-303.827 Y-147.453 F4200
G53 G1 X-311.038 Y-140.781 F4200
G53 G1 X-317.198 Y-133.969 F4200
G53 G1 X-322.267 Y-127.125 F4200
G53 G1 X-326.218 Y-120.354 F4200
G53 G1 X-329.035 Y-113.767 F4200
G53 G1 X-330.720 Y-107.471 F4200
G53 G1 X-331.282 Y-101.572 F4200
G53 G1 X-330.747 Y-96.174 F4200
G53 G1 X-329.152 Y-91.374 F4200
G53 G1 X-326.547 Y-87.264 F4200
G53 G1 X-322.992 Y-83.929 F4200
G53 G1 X-318.558 Y-81.445 F4200
G53 G1 X-313.326 Y-79.878 F4200
G53 G1 X-307.384 Y-79.285 F4200
G53 G1 X-300.828 Y-79.709 F4200
G53 G1 X-293.760 Y-81.184 F4200
G53 G1 X-286.287 Y-83.731 F4200
G53 G1 X-278.517 Y-87.356 F4200
G53 G1 X-270.563 Y-92.054 F4200
G53 G1 X-262.535 Y-97.807 F4200
G53 G1 X-254.545 Y-104.583 F4200
G53 G1 X-246.699 Y-112.338 F4200
G53 G1 X-239.103 Y-121.016 F4200
G53 G1 X-231.854 Y-130.549 F4200
G53 G1 X-225.045 Y-140.858 F4200
G53 G1 X-218.760 Y-151.855 F4200
G53 G1 X-213.075 Y-163.442 F4200
G53 G1 X-208.055 Y-175.514 F4200
G53 G1 X-203.755 Y-187.959 F4200
G53 G1 X-200.221 Y-200.662 F4200
G53 G1 X-197.483 Y-213.499 F4200
G53 G1 X-195.563 Y-226.349 F4200
G53 G1 X-194.467 Y-239.088 F4200
G53 G1 X-194.192 Y-251.591 F4200
G53 G1 X-194.720 Y-263.737 F4200
G53 G1 X-196.023 Y-275.408 F4200
G53 G1 X-198.059 Y-286.490 F4200
G53 G1 X-200.777 Y-296.878 F4200
G53 G1 X-204.116 Y-306.470 F4200
G53 G1 X-208.003 Y-315.176 F4200
G53 G1 X-212.358 Y-322.915 F4200
G53 G1 X-217.095 Y-329.617 F4200
G53 G1 X-222.120 Y-335.223 F4200
G53 G1 X-227.334 Y-339.686 F4200
G53 G1 X-232.636 Y-340.000 F4200
G53 G1 X-237.920 Y-340.000 F4200
G53 G1 X-243.083 Y-340.000 F4200
G53 G1 X-248.019 Y-340.000 F4200
G53 G1 X-252.626 Y-340.000 F4200
G53 G1 X-256.805 Y-340.000 F4200
G53 G1 X-260.463 Y-337.734 F4200
G53 G1 X-263.511 Y-332.939 F4200
G53 G1 X-265.869 Y-327.165 F4200
G53 G1 X-267.464 Y-320.490 F4200
G53 G1 X-268.235 Y-313.001 F4200
G53 G1 X-268.128 Y-304.795 F4200
G53 G1 X-267.102 Y-295.973 F4200
G53 G1 X-265.130 Y-286.645 F4200
G53 G1 X-262.192 Y-276.923 F4200
G53 G1 X-258.286 Y-266.921 F4200
G53 G1 X-253.419 Y-256.758 F4200
G53 G1 X-247.613 Y-246.551 F4200
G53 G1 X-240.901 Y-236.414 F4200
G53 G1 X-233.329 Y-226.461 F4200
G53 G1 X-224.955 Y-216.799 F4200
G53 G1 X-215.849 Y-207.532 F4200
G53 G1 X-206.088 Y-198.755 F4200
G53 G1 X-195.762 Y-190.557 F4200
G53 G1 X-184.969 Y-183.015 F4200
G53 G1 X-173.812 Y-176.199 F4200
G53 G1 X-162.401 Y-170.167 F4200
G53 G1 X-150.853 Y-164.964 F4200
G53 G1 X-139.285 Y-160.626 F4200
G53 G1 X-127.817 Y-157.175 F4200
G53 G1 X-116.571 Y-154.620 F4200
G53 G1 X-105.666 Y-152.957 F4200
G53 G1 X-95.219 Y-152.172 F4200
G53 G1 X-85.343 Y-152.236 F4200
G53 G1 X-76.146 Y-153.110 F4200
G53 G1 X-67.729 Y-154.744 F4200
G53 G1 X-60.186 Y-157.077 F4200
G53 G1 X-53.601 Y-160.038 F4200
G53 G1 X-48.048 Y-163.548 F4200
G53 G1 X-43.590 Y-167.521 F4200
G53 G1 X-40.278 Y-171.864 F4200
G53 G1 X-40.000 Y-176.480 F4200
G53 G1 X-40.000 Y-181.268 F4200
G53 G1 X-40.000 Y-186.124 F4200
G53 G1 X-40.000 Y-190.944 F4200
G53 G1 X-41.815 Y-195.626 F4200
G53 G1 X-45.736 Y-200.068 F4200
G53 G1 X-50.799 Y-204.171 F4200
G53 G1 X-56.951 Y-207.844 F4200
G53 G1 X-64.127 Y-210.999 F4200
G53 G1 X-72.251 Y-213.557 F4200
G53 G1 X-81.238 Y-215.447 F4200
G53 G1 X-90.994 Y-216.606 F4200
G53 G1 X-101.415 Y-216.985 F4200
G53 G1 X-112.393 Y-216.541 F4200
G53 G1 X-123.814 Y-215.247 F4200
G53 G1 X-135.557 Y-213.086 F4200
G53 G1 X-147.504 Y-210.053 F4200
G53 G1 X-159.532 Y-206.158 F4200
G53 G1 X-171.519 Y-201.420 F4200
G53 G1 X-183.346 Y-195.873 F4200
G53 G1 X-194.897 Y-189.562 F4200
G53 G1 X-206.060 Y-182.544 F4200
G53 G1 X-216.731 Y-174.886 F4200
G53 G1 X-226.810 Y-166.664 F4200
G53 G1 X-236.208 Y-157.966 F4200
G53 G1 X-244.845 Y-148.886 F4200
G53 G1 X-252.652 Y-139.525 F4200
G53 G1 X-259.570 Y-129.990 F4200
G53 G1 X-265.552 Y-120.392 F4200
G53 G1 X-270.564 Y-110.844 F4200
G53 G1 X-274.585 Y-101.463 F4200
G53 G1 X-277.605 Y-92.363 F4200
G53 G1 X-279.630 Y-83.659 F4200
G53 G1 X-280.674 Y-75.462 F4200
G53 G1 X-280.768 Y-67.878 F4200
G53 G1 X-279.953 Y-61.009 F4200
G53 G1 X-278.281 Y-54.948 F4200
G53 G1 X-275.814 Y-49.783 F4200
G53 G1 X-272.624 Y-45.588 F4200
G53 G1 X-268.794 Y-42.432 F4200
G53 G1 X-264.410 Y-40.368 F4200
G53 G1 X-259.568 Y-40.000 F4200
G53 G1 X-254.367 Y-40.000 F4200
G53 G1 X-248.910 Y-41.106 F4200
G53 G1 X-243.302 Y-43.720 F4200
G53 G1 X-237.649 Y-47.516 F4200
G53 G1 X-232.056 Y-52.470 F4200
G53 G1 X-226.626 Y-58.549 F4200
G53 G1 X-221.459 Y-65.703 F4200
G53 G1 X-216.649 Y-73.874 F4200
G53 G1 X-212.286 Y-82.989 F4200
G53 G1 X-208.449 Y-92.968 F4200
G53 G1 X-205.213 Y-103.717 F4200
G53 G1 X-202.639 Y-115.137 F4200
G53 G1 X-200.783 Y-127.119 F4200
G53 G1 X-199.685 Y-139.550 F4200
G53 G1 X-199.376 Y-152.312 F4200
G53 G1 X-199.875 Y-165.280 F4200
G53 G1 X-201.188 Y-178.332 F4200
G53 G1 X-203.309 Y-191.343 F4200
G53 G1 X-206.219 Y-204.189 F4200
G53 G1 X-209.888 Y-216.749 F4200
G53 G1 X-214.274 Y-228.906 F4200
G53 G1 X-219.323 Y-240.547 F4200
G53 G1 X-224.970 Y-251.568 F4200
G53 G1 X-231.143 Y-261.870 F4200
G53 G1 X-237.757 Y-271.365 F4200
G53 G1 X-244.724 Y-279.975 F4200
G53 G1 X-251.946 Y-287.631 F4200
G53 G1 X-259.320 Y-294.278 F4200
G53 G1 X-266.741 Y-299.871 F4200
G53 G1 X-274.099 Y-304.380 F4200
G53 G1 X-281.285 Y-307.786 F4200
G53 G1 X-288.188 Y-310.084 F4200
G53 G1 X-294.701 Y-311.283 F4200
G53 G1 X-300.718 Y-311.402 F4200
G53 G1 X-306.140 Y-310.476 F4200
G53 G1 X-310.871 Y-308.550 F4200
G53 G1 X-314.823 Y-305.680 F4200
G53 G1 X-317.918 Y-301.935 F4200
G53 G1 X-320.086 Y-297.391 F4200
G53 G1 X-321.267 Y-292.133 F4200
G53 G1 X-321.413 Y-286.256 F4200
G53 G1 X-320.486 Y-279.857 F4200
G53 G1 X-318.465 Y-273.041 F4200
G53 G1 X-315.336 Y-265.916 F4200
G53 G1 X-311.101 Y-258.590 F4200
G53 G1 X-305.777 Y-251.175 F4200
G53 G1 X-299.390 Y-243.779 F4200
G53 G1 X-291.981 Y-236.509 F4200
G53 G1 X-283.604 Y-229.470 F4200
G53 G1 X-274.323 Y-222.758 F4200
G53 G1 X-264.215 Y-216.467 F4200
G53 G1 X-253.365 Y-210.681 F4200
G53 G1 X-241.869 Y-205.476 F4200
G53 G1 X-229.831 Y-200.919 F4200
G53 G1 X-217.361 Y-197.067 F4200
G53 G1 X-204.575 Y-193.963 F4200
G53 G1 X-191.594 Y-191.643 F4200
G53 G1 X-178.540 Y-190.127 F4200
G53 G1 X-165.539 Y-189.425 F4200
G53 G1 X-152.715 Y-189.533 F4200
G53 G1 X-140.190 Y-190.436 F4200
G53 G1 X-128.084 Y-192.106 F4200
G53 G1 X-116.513 Y-194.505 F4200
G53 G1 X-105.587 Y-197.581 F4200
G53 G1 X-95.407 Y-201.274 F4200
G53 G1 X-86.067 Y-205.513 F4200
G53 G1 X-77.653 Y-210.220 F4200
G53 G1 X-70.238 Y-215.306 F4200
G53 G1 X-63.886 Y-220.679 F4200
G53 G1 X-58.647 Y-226.241 F4200
G53 G1 X-54.559 Y-231.889 F4200
G53 G1 X-51.648 Y-237.518 F4200
G53 G1 X-49.926 Y-243.023 F4200
G53 G1 X-49.391 Y-248.298 F4200
G53 G1 X-50.028 Y-253.239 F4200
G53 G1 X-51.811 Y-257.746 F4200
G53 G1 X-54.699 Y-261.724 F4200
G53 G1 X-58.640 Y-265.081 F4200
G53 G1 X-63.570 Y-267.736 F4200
G53 G1 X-69.414 Y-269.613 F4200
G53 G1 X-76.090 Y-270.648 F4200
G53 G1 X-83.504 Y-270.785 F4200
G53 G1 X-91.558 Y-269.982 F4200
G53 G1 X-100.146 Y-268.204 F4200
G53 G1 X-109.157 Y-265.434 F4200
G53 G1 X-118.479 Y-261.663 F4200
G53 G1 X-127.996 Y-256.897 F4200
G53 G1 X-137.592 Y-251.155 F4200
G53 G1 X-147.154 Y-244.467 F4200
G53 G1 X-156.568 Y-236.877 F4200
G53 G1 X-165.728 Y-228.441 F4200
G53 G1 X-174.531 Y-219.226 F4200
G53 G1 X-182.880 Y-209.309 F4200
G53 G1 X-190.687 Y-198.778 F4200
G53 G1 X-197.872 Y-187.729 F4200
G53 G1 X-204.365 Y-176.264 F4200
G53 G1 X-210.107 Y-164.496 F4200
G53 G1 X-215.051 Y-152.537 F4200
G53 G1 X-219.159 Y-140.508 F4200
G53 G1 X-222.409 Y-128.530 F4200
G53 G1 X-224.788 Y-116.724 F4200
G53 G1 X-226.298 Y-105.212 F4200
G53 G1 X-226.952 Y-94.112 F4200
G53 G1 X-226.776 Y-83.541 F4200
G53 G1 X-225.807 Y-73.609 F4200
G53 G1 X-224.095 Y-64.421 F4200
G53 G1 X-221.698 Y-56.072 F4200
G53 G1 X-218.685 Y-48.652 F4200
G53 G1 X-215.133 Y-42.238 F4200
G53 G1 X-211.129 Y-40.000 F4200
G53 G1 X-206.763 Y-40.000 F4200
G53 G1 X-202.132 Y-40.000 F4200
G53 G1 X-197.336 Y-40.000 F4200
G53 G1 X-192.479 Y-40.000 F4200
G53 G1 X-187.665 Y-40.000 F4200
G53 G1 X-182.996 Y-40.000 F4200
G53 G1 X-178.576 Y-40.000 F4200
G53 G1 X-174.501 Y-40.000 F4200
G53 G1 X-170.867 Y-42.113 F4200
G53 G1 X-167.761 Y-48.447 F4200
G53 G1 X-165.265 Y-55.758 F4200
G53 G1 X-163.450 Y-63.965 F4200
G53 G1 X-162.380 Y-72.976 F4200
G53 G1 X-162.109 Y-82.692 F4200
G53 G1 X-162.679 Y-93.007 F4200
G53 G1 X-164.121 Y-103.808 F4200
G53 G1 X-166.452 Y-114.980 F4200
G53 G1 X-169.680 Y-126.404 F4200
G53 G1 X-173.798 Y-137.958 F4200
G53 G1 X-178.787 Y-149.523 F4200
G53 G1 X-184.615 Y-160.978 F4200
G53 G1 X-191.240 Y-172.209 F4200
G53 G1 X-198.607 Y-183.104 F4200
G53 G1 X-206.648 Y-193.556 F4200
G53 G1 X-215.288 Y-203.466 F4200
G53 G1 X-224.441 Y-212.745 F4200
G53 G1 X-234.014 Y-221.308 F4200
G53 G1 X-243.904 Y-229.086 F4200
G53 G1 X-254.006 Y-236.018 F4200
G53 G1 X-264.206 Y-242.054 F4200
G53 G1 X-274.391 Y-247.159 F4200
G53 G1 X-284.444 Y-251.306 F4200
G53 G1 X-294.247 Y-254.486 F4200
G53 G1 X-303.685 Y-256.699 F4200
G53 G1 X-312.643 Y-257.959 F4200
G53 G1 X-321.013 Y-258.292 F4200
G53 G1 X-328.690 Y-257.736 F4200
G53 G1 X-335.577 Y-256.342 F4200
G53 G1 X-341.585 Y-254.168 F4200
G53 G1 X-346.631 Y-251.286 F4200
G53 G1 X-350.647 Y-247.772 F4200
G53 G1 X-353.573 Y-243.715 F4200
G53 G1 X-355.360 Y-239.205 F4200
G53 G1 X-355.974 Y-234.342 F4200
G53 G1 X-355.393 Y-229.227 F4200
G53 G1 X-353.606 Y-223.963 F4200
G53 G1 X-350.618 Y-218.656 F4200
G53 G1 X-346.447 Y-213.410 F4200
G53 G1 X-341.124 Y-208.328 F4200
G53 G1 X-334.691 Y-203.510 F4200
G53 G1 X-327.205 Y-199.051 F4200
G53 G1 X-318.733 Y-195.039 F4200
G53 G1 X-309.354 Y-191.556 F4200
G53 G1 X-299.156 Y-188.677 F4200
G53 G1 X-288.238 Y-186.465 F4200
G53 G1 X-276.704 Y-184.975 F4200
G53 G1 X-264.665 Y-184.250 F4200
G53 G1 X-252.240 Y-184.322 F4200
G53 G1 X-239.549 Y-185.211 F4200
G53 G1 X-226.715 Y-186.926 F4200
G53 G1 X-213.863 Y-189.461 F4200
G53 G1 X-201.116 Y-192.799 F4200
G53 G1 X-188.595 Y-196.910 F4200
G53 G1 X-176.419 Y-201.755 F4200
G53 G1 X-164.700 Y-207.280 F4200
G53 G1 X-153.546 Y-213.422 F4200
G53 G1 X-143.057 Y-220.107 F4200
G53 G1 X-133.322 Y-227.255 F4200
G53 G1 X-124.424 Y-234.773 F4200
G53 G1 X-116.432 Y-242.566 F4200
G53 G1 X-109.407 Y-250.530 F4200
G53 G1 X-103.395 Y-258.558 F4200
G53 G1 X-98.431 Y-266.541 F4200
G53 G1 X-94.536 Y-274.368 F4200
G53 G1 X-91.720 Y-281.926 F4200
G53 G1 X-89.978 Y-289.105 F4200
G53 G1 X-89.294 Y-295.799 F4200
G53 G1 X-89.637 Y-301.903 F4200
G53 G1 X-90.965 Y-307.322 F4200
G53 G1 X-93.226 Y-311.963 F4200
G53 G1 X-96.355 Y-315.745 F4200
G53 G1 X-100.279 Y-318.593 F4200
G53 G1 X-104.914 Y-320.446 F4200
G53 G1 X-110.172 Y-321.249 F4200
G53 G1 X-115.955 Y-320.964 F4200
G53 G1 X-122.161 Y-319.563 F4200
G53 G1 X-128.686 Y-317.029 F4200
G53 G1 X-135.421 Y-313.360 F4200
G53 G1 X-142.257 Y-308.569 F4200
G53 G1 X-149.087 Y-302.678 F4200
G53 G1 X-155.804 Y-295.725 F4200
G53 G1 X-162.305 Y-287.760 F4200
G53 G1 X-168.491 Y-278.845 F4200
G53 G1 X-174.272 Y-269.052 F4200
G53 G1 X-179.562 Y-258.465 F4200
G53 G1 X-184.283 Y-247.177 F4200
G53 G1 X-188.370 Y-235.289 F4200
G53 G1 X-191.764 Y-222.912 F4200
G53 G1 X-194.419 Y-210.158 F4200
G53 G1 X-196.300 Y-197.149 F4200
G53 G1 X-197.385 Y-184.006 F4200
G53 G1 X-197.663 Y-170.855 F4200
G53 G1 X-197.136 Y-157.820 F4200
G53 G1 X-195.817 Y-145.025 F4200
G53 G1 X-193.734 Y-132.592 F4200
G53 G1 X-190.924 Y-120.636 F4200
G53 G1 X-187.436 Y-109.271 F4200
G53 G1 X-183.331 Y-98.600 F4200
G53 G1 X-178.678 Y-88.721 F4200
G53 G1 X-173.556 Y-79.722 F4200
G53 G1 X-168.051 Y-71.679 F4200
G53 G1 X-162.256 Y-64.661 F4200
G53 G1 X-156.270 Y-58.721 F4200
G53 G1 X-150.196 Y-53.901 F4200
G53 G1 X-144.138 Y-50.233 F4200
G53 G1 X-138.205 Y-47.731 F4200
G53 G1 X-132.501 Y-46.399 F4200
G53 G1 X-127.133 Y-46.227 F4200
G53 G1 X-122.203 Y-47.191 F4200
G53 G1 X-117.809 Y-49.257 F4200
G53 G1 X-114.042 Y-52.375 F4200
G53 G1 X-110.988 Y-56.486 F4200
G53 G1 X-108.725 Y-61.520 F4200
G53 G1 X-107.320 Y-67.396 F4200
G53 G1 X-106.831 Y-74.027 F4200
G53 G1 X-107.305 Y-81.315 F4200
G53 G1 X-108.777 Y-89.159 F4200
G53 G1 X-111.271 Y-97.450 F4200
G53 G1 X-114.796 Y-106.077 F4200
G53 G1 X-119.350 Y-114.927 F4200
G53 G1 X-124.918 Y-123.887 F4200
G53 G1 X-131.472 Y-132.842 F4200
G53 G1 X-138.970 Y-141.682 F4200
G53 G1 X-147.359 Y-150.299 F4200
G53 G1 X-156.576 Y-158.591 F4200
G53 G1 X-166.543 Y-166.461 F4200
G53 G1 X-177.176 Y-173.821 F4200
G53 G1 X-188.381 Y-180.590 F4200
G53 G1 X-200.053 Y-186.697 F4200
G53 G1 X-212.084 Y-192.082 F4200
G53 G1 X-224.360 Y-196.695 F4200
G53 G1 X-236.760 Y-200.499 F4200
G53 G1 X-249.164 Y-203.469 F4200
G53 G1 X-261.449 Y-205.590 F4200
G53 G1 X-273.491 Y-206.863 F4200
G53 G1 X-285.170 Y-207.298 F4200
G53 G1 X-296.368 Y-206.921 F4200
G53 G1 X-306.973 Y-205.766 F4200
G53 G1 X-316.876 Y-203.881 F4200
G53 G1 X-325.978 Y-201.323 F4200
G53 G1 X-334.187 Y-198.160 F4200
G53 G1 X-341.421 Y-194.468 F4200
G53 G1 X-347.610 Y-190.332 F4200
G53 G1 X-352.692 Y-185.841 F4200
G53 G1 X-356.620 Y-181.091 F4200
G53 G1 X-359.358 Y-176.184 F4200
G53 G1 X-360.000 Y-171.223 F4200
G53 G1 X-360.000 Y-166.310 F4200
G53 G1 X-360.000 Y-161.550 F4200
G53 G1 X-358.176 Y-157.045 F4200
G53 G1 X-354.902 Y-152.896 F4200
G53 G1 X-350.505 Y-149.197 F4200
G53 G1 X-345.041 Y-146.037 F4200
G53 G1 X-338.577 Y-143.499 F4200
G53 G1 X-331.190 Y-141.657 F4200
G53 G1 X-322.969 Y-140.578 F4200
G53 G1 X-314.009 Y-140.315 F4200
G53 G1 X-304.413 Y-140.914 F4200
G53 G1 X-294.291 Y-142.408 F4200
G53 G1 X-283.757 Y-144.816 F4200
G53 G1 X-272.927 Y-148.149 F4200
G53 G1 X-261.922 Y-152.401 F4200
G53 G1 X-250.859 Y-157.556 F4200
G53 G1 X-239.858 Y-163.585 F4200
G53 G1 X-229.033 Y-170.445 F4200
G53 G1 X-218.498 Y-178.084 F4200
G53 G1 X-208.357 Y-186.437 F4200
G53 G1 X-198.711 Y-195.428 F4200
G53 G1 X-189.652 Y-204.974 F4200
G53 G1 X-181.263 Y-214.979 F4200
G53 G1 X-173.616 Y-225.345 F4200
G53 G1 X-166.775 Y-235.963 F4200
G53 G1 X-160.790 Y-246.721 F4200
G53 G1 X-155.701 Y-257.504 F4200
G53 G1 X-151.534 Y-268.194 F4200
G53 G1 X-148.303 Y-278.672 F4200
G53 G1 X-146.010 Y-288.820 F4200
G53 G1 X-144.644 Y-298.523 F4200
G53 G1 X-144.180 Y-307.667 F4200
G53 G1 X-144.583 Y-316.147 F4200
G53 G1 X-145.807 Y-323.861 F4200
G53 G1 X-147.793 Y-330.716 F4200
G53 G1 X-150.474 Y-336.628 F4200
G53 G1 X-153.773 Y-340.000 F4200
G53 G1 X-157.607 Y-340.000 F4200
G53 G1 X-161.883 Y-340.000 F4200
G53 G1 X-166.506 Y-340.000 F4200
G53 G1 X-171.376 Y-340.000 F4200
G53 G1 X-176.389 Y-340.000 F4200
G53 G1 X-181.441 Y-340.000 F4200
G53 G1 X-186.428 Y-340.000 F4200
G53 G1 X-191.246 Y-338.955 F4200
G53 G1 X-195.798 Y-333.314 F4200
G53 G1 X-199.986 Y-326.587 F4200
G53 G1 X-203.722 Y-318.839 F4200
G53 G1 X-206.923 Y-310.144 F4200
G53 G1 X-209.515 Y-300.588 F4200
G53 G1 X-211.431 Y-290.263 F4200
G53 G1 X-212.616 Y-279.274 F4200
G53 G1 X-213.025 Y-267.728 F4200
G53 G1 X-212.625 Y-255.742 F4200
G53 G1 X-211.394 Y-243.435 F4200
G53 G1 X-209.323 Y-230.927 F4200
G53 G1 X-206.415 Y-218.344 F4200
G53 G1 X-202.685 Y-205.807 F4200
G53 G1 X-198.162 Y-193.439 F4200
G53 G1 X-192.885 Y-181.357 F4200
G53 G1 X-186.905 Y-169.677 F4200
G53 G1 X-180.285 Y-158.505 F4200
G53 G1 X-173.098 Y-147.943 F4200
G53 G1 X-165.425 Y-138.084 F4200
G53 G1 X-157.356 Y-129.012 F4200
G53 G1 X-148.989 Y-120.799 F4200
G53 G1 X-140.426 Y-113.507 F4200
G53 G1 X-131.775 Y-107.186 F4200
G53 G1 X-123.147 Y-101.875 F4200
G53 G1 X-114.655 Y-97.599 F4200
G53 G1 X-106.412 Y-94.369 F4200
G53 G1 X-98.531 Y-92.185 F4200
G53 G1 X-91.120 Y-91.034 F4200
G53 G1 X-84.285 Y-90.888 F4200
G53 G1 X-78.127 Y-91.711 F4200
G53 G1 X-72.741 Y-93.451 F4200
G53 G1 X-68.210 Y-96.048 F4200
G53 G1 X-64.614 Y-99.432 F4200
G53 G1 X-62.019 Y-103.522 F4200
G53 G1 X-60.480 Y-108.232 F4200
G53 G1 X-60.043 Y-113.467 F4200
G53 G1 X-60.740 Y-119.127 F4200
G53 G1 X-62.590 Y-125.110 F4200
G53 G1 X-65.599 Y-131.308 F4200
G53 G1 X-69.761 Y-137.615 F4200
G53 G1 X-75.055 Y-143.923 F4200
G53 G1 X-81.448 Y-150.127 F4200
G53 G1 X-88.895 Y-156.124 F4200
G53 G1 X-97.336 Y-161.817 F4200
G53 G1 X-106.703 Y-167.113 F4200
G53 G1 X-116.914 Y-171.927 F4200
G53 G1 X-127.880 Y-176.181 F4200
G53 G1 X-139.501 Y-179.807 F4200
G53 G1 X-151.670 Y-182.748 F4200
G53 G1 X-164.273 Y-184.955 F4200
G53 G1 X-177.193 Y-186.393 F4200
G53 G1 X-190.308 Y-187.038 F4200
G53 G1 X-203.492 Y-186.878 F4200
G53 G1 X-216.622 Y-185.913 F4200
G53 G1 X-229.572 Y-184.156 F4200
G53 G1 X-242.221 Y-181.632 F4200
G53 G1 X-254.450 Y-178.377 F4200
G53 G1 X-266.145 Y-174.441 F4200
G53 G1 X-277.201 Y-169.882 F4200
G53 G1 X-287.516 Y-164.769 F4200
G53 G1 X-297.001 Y-159.180 F4200
G53 G1 X-305.575 Y-153.201 F4200
G53 G1 X-313.167 Y-146.926 F4200
G53 G1 X-319.720 Y-140.452 F4200
G53 G1 X-325.186 Y-133.884 F4200
G53 G1 X-329.533 Y-127.327 F4200
G53 G1 X-332.740 Y-120.889 F4200
G53 G1 X-334.799 Y-114.678 F4200
G53 G1 X-335.716 Y-108.800 F4200
G53 G1 X-335.510 Y-103.361 F4200
G53 G1 X-334.214 Y-98.460 F4200
G53 G1 X-331.870 Y-94.191 F4200
G53 G1 X-328.534 Y-90.643 F4200
G53 G1 X-324.273 Y-87.895 F4200
G53 G1 X-319.164 Y-86.019 F4200
G53 G1 X-313.291 Y-85.075 F4200
G53 G1 X-306.748 Y-85.114 F4200
G53 G1 X-299.634 Y-86.174 F4200
G53 G1 X-292.054 Y-88.282 F4200
G53 G1 X-284.118 Y-91.451 F4200
G53 G1 X-275.937 Y-95.682 F4200
G53 G1 X-267.622 Y-100.964 F4200
G53 G1 X-259.286 Y-107.270 F4200
G53 G1 X-251.040 Y-114.564 F4200
G53 G1 X-242.989 Y-122.795 F4200
G53 G1 X-235.237 Y-131.900 F4200
G53 G1 X-227.880 Y-141.807 F4200
G53 G1 X-221.006 Y-152.432 F4200
G53 G1 X-214.696 Y-163.682 F4200
G53 G1 X-209.023 Y-175.455 F4200
G53 G1 X-204.048 Y-187.644 F4200
G53 G1 X-199.822 Y-200.133 F4200
G53 G1 X-196.383 Y-212.805 F4200
G53 G1 X-193.758 Y-225.537 F4200
G53 G1 X-191.962 Y-238.206 F4200
G53 G1 X-190.999 Y-250.688 F4200
G53 G1 X-190.857 Y-262.861 F4200
G53 G1 X-191.514 Y-274.604 F4200
G53 G1 X-192.936 Y-285.803 F4200
G53 G1 X-195.079 Y-296.348 F4200
G53 G1 X-197.884 Y-306.136 F4200
G53 G1 X-201.287 Y-315.071 F4200
G53 G1 X-205.212 Y-323.068 F4200
G53 G1 X-209.575 Y-330.053 F4200
G53 G1 X-214.287 Y-335.960 F4200
G53 G1 X-219.252 Y-340.000 F4200
G53 G1 X-224.370 Y-340.000 F4200
G53 G1 X-229.538 Y-340.000 F4200
G53 G1 X-234.652 Y-340.000 F4200
G53 G1 X-239.607 Y-340.000 F4200
G53 G1 X-244.299 Y-340.000 F4200
G53 G1 X-248.628 Y-340.000 F4200
G53 G1 X-252.499 Y-340.000 F4200
G53 G1 X-255.818 Y-336.281 F4200
G53 G1 X-258.503 Y-330.679 F4200
G53 G1 X-260.477 Y-324.134 F4200
G53 G1 X-261.672 Y-316.730 F4200
G53 G1 X-262.030 Y-308.559 F4200
G53 G1 X-261.506 Y-299.721 F4200
G53 G1 X-260.063 Y-290.323 F4200
G53 G1 X-257.678 Y-280.477 F4200
G53 G1 X-254.340 Y-270.296 F4200
G53 G1 X-250.051 Y-259.899 F4200
G53 G1 X-244.826 Y-249.403 F4200
G53 G1 X-238.690 Y-238.925 F4200
G53 G1 X-231.685 Y-228.581 F4200
G53 G1 X-223.862 Y-218.482 F4200
G53 G1 X-215.282 Y-208.734 F4200
G53 G1 X-206.021 Y-199.438 F4200
G53 G1 X-196.162 Y-190.686 F4200
G53 G1 X-185.796 Y-182.562 F4200
G53 G1 X-175.026 Y-175.140 F4200
G53 G1 X-163.957 Y-168.486 F4200
G53 G1 X-152.702 Y-162.651 F4200
G53 G1 X-141.377 Y-157.677 F4200
G53 G1 X-130.101 Y-153.593 F4200
G53 G1 X-118.994 Y-150.414 F4200
G53 G1 X-108.176 Y-148.146 F4200
G53 G1 X-97.765 Y-146.777 F4200
G53 G1 X-87.875 Y-146.289 F4200
G53 G1 X-78.617 Y-146.646 F4200
G53 G1 X-70.093 Y-147.805 F4200
G53 G1 X-62.402 Y-149.710 F4200
G53 G1 X-55.631 Y-152.296 F4200
G53 G1 X-49.858 Y-155.487 F4200
G53 G1 X-45.152 Y-159.201 F4200
G53 G1 X-41.570 Y-163.349 F4200
G53 G1 X-40.000 Y-167.835 F4200
G53 G1 X-40.000 Y-172.560 F4200
G53 G1 X-40.000 Y-177.423 F4200
G53 G1 X-40.000 Y-182.318 F4200
G53 G1 X-41.609 Y-187.141 F4200
G53 G1 X-45.244 Y-191.792 F4200
G53 G1 X-50.038 Y-196.168 F4200
G53 G1 X-55.944 Y-200.175 F4200
G53 G1 X-62.902 Y-203.723 F4200
G53 G1 X-70.842 Y-206.727 F4200
G53 G1 X-79.683 Y-209.112 F4200
G53 G1 X-89.333 Y-210.810 F4200
G53 G1 X-99.693 Y-211.765 F4200
G53 G1 X-110.656 Y-211.930 F4200
G53 G1 X-122.110 Y-211.271 F4200
G53 G1 X-133.938 Y-209.763 F4200
G53 G1 X-146.020 Y-207.395 F4200
G53 G1 X-158.232 Y-204.170 F4200
G53 G1 X-170.453 Y-200.101 F4200
G53 G1 X-182.561 Y-195.214 F4200
G53 G1 X-194.439 Y-189.548 F4200
G53 G1 X-205.971 Y-183.153 F4200
G53 G1 X-217.049 Y-176.090 F4200
G53 G1 X-227.569 Y-168.430 F4200
G53 G1 X-237.439 Y-160.256 F4200
G53 G1 X-246.572 Y-151.656 F4200
G53 G1 X-254.893 Y-142.728 F4200
G53 G1 X-262.338 Y-133.575 F4200
G53 G1 X-268.854 Y-124.305 F4200
G53 G1 X-274.401 Y-115.031 F4200
G53 G1 X-278.949 Y-105.865 F4200
G53 G1 X-282.484 Y-96.924 F4200
G53 G1 X-285.003 Y-88.322 F4200
G53 G1 X-286.517 Y-80.169 F4200
G53 G1 X-287.048 Y-72.575 F4200
G53 G1 X-286.632 Y-65.643 F4200
G53 G1 X-285.315 Y-59.470 F4200
G53 G1 X-283.155 Y-54.145 F4200
G53 G1 X-280.221 Y-49.749 F4200
G53 G1 X-276.588 Y-46.353 F4200
G53 G1 X-272.342 Y-44.018 F4200
G53 G1 X-267.575 Y-42.791 F4200
G53 G1 X-262.384 Y-42.710 F4200
G53 G1 X-256.871 Y-43.799 F4200
G53 G1 X-251.140 Y-46.067 F4200
G53 G1 X-245.299 Y-49.513 F4200
G53 G1 X-239.452 Y-54.120 F4200
G53 G1 X-233.705 Y-59.859 F4200
G53 G1 X-228.160 Y-66.689 F4200
G53 G1 X-222.915 Y-74.555 F4200
G53 G1 X-218.062 Y-83.391 F4200
G53 G1 X-213.687 Y-93.119 F4200
G53 G1 X-209.867 Y-103.653 F4200
G53 G1 X-206.673 Y-114.895 F4200
G53 G1 X-204.162 Y-126.741 F4200
G53 G1 X-202.383 Y-139.080 F4200
G53 G1 X-201.374 Y-151.794 F4200
G53 G1 X-201.160 Y-164.764 F4200
G53 G1 X-201.755 Y-177.864 F4200
G53 G1 X-203.158 Y-190.970 F4200
G53 G1 X-205.359 Y-203.959 F4200
G53 G1 X-208.335 Y-216.706 F4200
G53 G1 X-212.048 Y-229.093 F4200
G53 G1 X-216.453 Y-241.005 F4200
G53 G1 X-221.491 Y-252.333 F4200
G53 G1 X-227.094 Y-262.974 F4200
G53 G1 X-233.184 Y-272.837 F4200
G53 G1 X-239.676 Y-281.837 F4200
G53 G1 X-246.476 Y-289.901 F4200
G53 G1 X-253.486 Y-296.968 F4200
G53 G1 X-260.602 Y-302.986 F4200
G53 G1 X-267.716 Y-307.920 F4200
G53 G1 X-274.721 Y-311.744 F4200
G53 G1 X-281.506 Y-314.447 F4200
G53 G1 X-287.963 Y-316.031 F4200
G53 G1 X-293.987 Y-316.510 F4200
G53 G1 X-299.474 Y-315.913 F4200
G53 G1 X-304.327 Y-314.280 F4200
G53 G1 X-308.456 Y-311.661 F4200
G53 G1 X-311.779 Y-308.119 F4200
G53 G1 X-314.219 Y-303.729 F4200
G53 G1 X-315.715 Y-298.570 F4200
G53 G1 X-316.210 Y-292.734 F4200
G53 G1 X-315.664 Y-286.318 F4200
G53 G1 X-314.047 Y-279.423 F4200
G53 G1 X-311.341 Y-272.157 F4200
G53 G1 X-307.541 Y-264.629 F4200
G53 G1 X-302.657 Y-256.949 F4200
G53 G1 X-296.709 Y-249.228 F4200
G53 G1 X-289.733 Y-241.575 F4200
G53 G1 X-281.775 Y-234.097 F4200
G53 G1 X-272.896 Y-226.896 F4200
G53 G1 X-263.164 Y-220.067 F4200
G53 G1 X-252.662 Y-213.700 F4200
G53 G1 X-241.481 Y-207.876 F4200
G53 G1 X-229.720 Y-202.668 F4200
G53 G1 X-217.486 Y-198.139 F4200
G53 G1 X-204.892 Y-194.339 F4200
G53 G1 X-192.058 Y-191.310 F4200
G53 G1 X-179.104 Y-189.079 F4200
G53 G1 X-166.154 Y-187.663 F4200
G53 G1 X-153.333 Y-187.066 F4200
G53 G1 X-140.765 Y-187.279 F4200
G53 G1 X-128.571 Y-188.281 F4200
G53 G1 X-116.867 Y-190.040 F4200
G53 G1 X-105.767 Y-192.512 F4200
G53 G1 X-95.376 Y-195.641 F4200
G53 G1 X-85.792 Y-199.362 F4200
G53 G1 X-77.104 Y-203.602 F4200
G53 G1 X-69.391 Y-208.277 F4200
G53 G1 X-62.721 Y-213.298 F4200
G53 G1 X-57.151 Y-218.570 F4200
G53 G1 X-52.725 Y-223.992 F4200
G53 G1 X-49.474 Y-229.461 F4200
G53 G1 X-47.416 Y-234.873 F4200
G53 G1 X-46.556 Y-240.122 F4200
G53 G1 X-46.885 Y-245.103 F4200
G53 G1 X-48.382 Y-249.715 F4200
G53 G1 X-51.011 Y-253.860 F4200
G53 G1 X-54.727 Y-257.444 F4200
G53 G1 X-59.470 Y-260.382 F4200
G53 G1 X-65.170 Y-262.594 F4200
G53 G1 X-71.747 Y-264.012 F4200
G53 G1 X-79.113 Y-264.574 F4200
G53 G1 X-87.171 Y-264.231 F4200
G53 G1 X-95.818 Y-262.946 F4200
G53 G1 X-104.945 Y-260.691 F4200
G53 G1 X-114.438 Y-257.455 F4200
G53 G1 X-124.183 Y-253.234 F4200
G53 G1 X-134.064 Y-248.042 F4200
G53 G1 X-143.964 Y-241.902 F4200
G53 G1 X-153.770 Y-234.853 F4200
G53 G1 X-163.370 Y-226.942 F4200
G53 G1 X-172.657 Y-218.233 F4200
G53 G1 X-181.533 Y-208.795 F4200
G53 G1 X-189.903 Y-198.712 F4200
G53 G1 X-197.683 Y-188.074 F4200
G53 G1 X-204.797 Y-176.982 F4200
G53 G1 X-211.179 Y-165.542 F4200
G53 G1 X-216.776 Y-153.866 F4200
G53 G1 X-221.543 Y-142.071 F4200
G53 G1 X-225.452 Y-130.277 F4200
G53 G1 X-228.482 Y-118.604 F4200
G53 G1 X-230.629 Y-107.173 F4200
G53 G1 X-231.899 Y-96.106 F4200
G53 G1 X-232.312 Y-85.517 F4200
G53 G1 X-231.898 Y-75.521 F4200
G53 G1 X-230.700 Y-66.224 F4200
G53 G1 X-228.772 Y-57.727 F4200
G53 G1 X-226.178 Y-50.120 F4200
G53 G1 X-222.990 Y-43.486 F4200
G53 G1 X-219.290 Y-40.000 F4200
G53 G1 X-215.166 Y-40.000 F4200
G53 G1 X-210.712 Y-40.000 F4200
G53 G1 X-206.027 Y-40.000 F4200
G53 G1 X-201.212 Y-40.000 F4200
G53 G1 X-196.371 Y-40.000 F4200
G53 G1 X-191.608 Y-40.000 F4200
G53 G1 X-187.026 Y-40.000 F4200
G53 G1 X-182.724 Y-40.000 F4200
G53 G1 X-178.801 Y-40.558 F4200
G53 G1 X-175.346 Y-46.677 F4200
G53 G1 X-172.446 Y-53.806 F4200
G53 G1 X-170.176 Y-61.870 F4200
G53 G1 X-168.606 Y-70.779 F4200
G53 G1 X-167.794 Y-80.438 F4200
G53 G1 X-167.789 Y-90.744 F4200
G53 G1 X-168.627 Y-101.587 F4200
G53 G1 X-170.334 Y-112.851 F4200
G53 G1 X-172.923 Y-124.417 F4200
G53 G1 X-176.394 Y-136.166 F4200
G53 G1 X-180.735 Y-147.976 F4200
G53 G1 X-185.921 Y-159.726 F4200
G53 G1 X-191.917 Y-171.299 F4200
G53 G1 X-198.672 Y-182.578 F4200
G53 G1 X-206.128 Y-193.456 F4200
G53 G1 X-214.213 Y-203.828 F4200
G53 G1 X-222.847 Y-213.600 F4200
G53 G1 X-231.941 Y-222.683 F4200
G53 G1 X-241.398 Y-231.002 F4200
G53 G1 X-251.114 Y-238.488 F4200
G53 G1 X-260.981 Y-245.088 F4200
G53 G1 X-270.886 Y-250.758 F4200
G53 G1 X-280.714 Y-255.467 F4200
G53 G1 X-290.347 Y-259.196 F4200
G53 G1 X-299.672 Y-261.941 F4200
G53 G1 X-308.572 Y-263.708 F4200
G53 G1 X-316.938 Y-264.518 F4200
G53 G1 X-324.662 Y-264.403 F4200
G53 G1 X-331.646 Y-263.406 F4200
G53 G1 X-337.795 Y-261.583 F4200
G53 G1 X-343.026 Y-258.999 F4200
G53 G1 X-347.263 Y-255.727 F4200
G53 G1 X-350.442 Y-251.852 F4200
G53 G1 X-352.511 Y-247.462 F4200
G53 G1 X-353.427 Y-242.652 F4200
G53 G1 X-353.164 Y-237.525 F4200
G53 G1 X-351.705 Y-232.181 F4200
G53 G1 X-349.049 Y-226.727 F4200
G53 G1 X-345.207 Y-221.268 F4200
G53 G1 X-340.204 Y-215.909 F4200
G53 G1 X-334.078 Y-210.750 F4200
G53 G1 X-326.879 Y-205.891 F4200
G53 G1 X-318.669 Y-201.422 F4200
G53 G1 X-309.523 Y-197.432 F4200
G53 G1 X-299.524 Y-193.998 F4200
G53 G1 X-288.765 Y-191.190 F4200
G53 G1 X-277.350 Y-189.069 F4200
G53 G1 X-265.386 Y-187.683 F4200
G53 G1 X-252.990 Y-187.072 F4200
G53 G1 X-240.280 Y-187.262 F4200
G53 G1 X-227.379 Y-188.269 F4200
G53 G1 X-214.412 Y-190.093 F4200
G53 G1 X-201.502 Y-192.726 F4200
G53 G1 X-188.773 Y-196.145 F4200
G53 G1 X-176.345 Y-200.315 F4200
G53 G1 X-164.334 Y-205.191 F4200
G53 G1 X-152.850 Y-210.715 F4200
G53 G1 X-141.996 Y-216.820 F4200
G53 G1 X-131.869 Y-223.429 F4200
G53 G1 X-122.553 Y-230.456 F4200
G53 G1 X-114.127 Y-237.808 F4200
G53 G1 X-106.653 Y-245.386 F4200
G53 G1 X-100.186 Y-253.086 F4200
G53 G1 X-94.766 Y-260.801 F4200
G53 G1 X-90.423 Y-268.419 F4200
G53 G1 X-87.169 Y-275.830 F4200
G53 G1 X-85.009 Y-282.924 F4200
G53 G1 X-83.930 Y-289.593 F4200
G53 G1 X-83.910 Y-295.731 F4200
G53 G1 X-84.911 Y-301.240 F4200
G53 G1 X-86.887 Y-306.025 F4200
G53 G1 X-89.777 Y-310.001 F4200
G53 G1 X-93.512 Y-313.090 F4200
G53 G1 X-98.015 Y-315.223 F4200
G53 G1 X-103.197 Y-316.344 F4200
G53 G1 X-108.964 Y-316.407 F4200
G53 G1 X-115.218 Y-315.378 F4200
G53 G1 X-121.852 Y-313.236 F4200
G53 G1 X-128.761 Y-309.972 F4200
G53 G1 X-135.834 Y-305.591 F4200
G53 G1 X-142.963 Y-300.111 F4200
G53 G1 X-150.039 Y-293.563 F4200
G53 G1 X-156.956 Y-285.990 F4200
G53 G1 X-163.615 Y-277.450 F4200
G53 G1 X-169.917 Y-268.009 F4200
G53 G1 X-175.774 Y-257.745 F4200
G53 G1 X-181.103 Y-246.748 F4200
G53 G1 X-185.832 Y-235.116 F4200
G53 G1 X-189.898 Y-222.952 F4200
G53 G1 X-193.248 Y-210.370 F4200
G53 G1 X-195.840 Y-197.487 F4200
G53 G1 X-197.644 Y-184.424 F4200
G53 G1 X-198.644 Y-171.305 F4200
G53 G1 X-198.833 Y-158.255 F4200
G53 G1 X-198.219 Y-145.398 F4200
G53 G1 X-196.822 Y-132.856 F4200
G53 G1 X-194.672 Y-120.750 F4200
G53 G1 X-191.812 Y-109.192 F4200
G53 G1 X-188.297 Y-98.291 F4200
G53 G1 X-184.191 Y-88.149 F4200
G53 G1 X-179.566 Y-78.856 F4200
G53 G1 X-174.506 Y-70.496 F4200
G53 G1 X-169.099 Y-63.141 F4200
G53 G1 X-163.440 Y-56.850 F4200
G53 G1 X-157.631 Y-51.672 F4200
G53 G1 X-151.773 Y-47.643 F4200
G53 G1 X-145.974 Y-44.785 F4200
G53 G1 X-140.339 Y-43.107 F4200
G53 G1 X-134.974 Y-42.606 F4200
G53 G1 X-129.982 Y-43.263 F4200
G53 G1 X-125.464 Y-45.050 F4200
G53 G1 X-121.513 Y-47.922 F4200
G53 G1 X-118.220 Y-51.826 F4200
G53 G1 X-115.663 Y-56.696 F4200
G53 G1 X-113.917 Y-62.456 F4200
G53 G1 X-113.045 Y-69.020 F4200
G53 G1 X-113.097 Y-76.296 F4200
G53 G1 X-114.116 Y-84.182 F4200
G53 G1 X-116.130 Y-92.574 F4200
G53 G1 X-119.157 Y-101.360 F4200
G53 G1 X-123.199 Y-110.427 F4200
G53 G1 X-128.249 Y-119.661 F4200
G53 G1 X-134.285 Y-128.947 F4200
G53 G1 X-141.271 Y-138.173 F4200
G53 G1 X-149.162 Y-147.226 F4200
G53 G1 X-157.898 Y-156.003 F4200
G53 G1 X-167.409 Y-164.402 F4200
G53 G1 X-177.615 Y-172.330 F4200
G53 G1 X-188.427 Y-179.700 F4200
G53 G1 X-199.745 Y-186.438 F4200
G53 G1 X-211.464 Y-192.476 F4200
G53 G1 X-223.471 Y-197.758 F4200
G53 G1 X-235.651 Y-202.240 F4200
G53 G1 X-247.883 Y-205.890 F4200
G53 G1 X-260.045 Y-208.687 F4200
G53 G1 X-272.015 Y-210.624 F4200
G53 G1 X-283.671 Y-211.705 F4200
G53 G1 X-294.894 Y-211.949 F4200
G53 G1 X-305.570 Y-211.384 F4200
G53 G1 X-315.587 Y-210.050 F4200
G53 G1 X-324.845 Y-208.001 F4200
G53 G1 X-333.246 Y-205.298 F4200
G53 G1 X-340.704 Y-202.012 F4200
G53 G1 X-347.145 Y-198.224 F4200
G53 G1 X-352.501 Y-194.020 F4200
G53 G1 X-356.721 Y-189.495 F4200
G53 G1 X-359.762 Y-184.745 F4200
G53 G1 X-360.000 Y-179.872 F4200
G53 G1 X-360.000 Y-174.981 F4200
G53 G1 X-360.000 Y-170.174 F4200
G53 G1 X-359.786 Y-165.556 F4200
G53 G1 X-356.782 Y-161.227 F4200
G53 G1 X-352.632 Y-157.284 F4200
G53 G1 X-347.385 Y-153.821 F4200
G53 G1 X-341.104 Y-150.922 F4200
G53 G1 X-333.862 Y-148.669 F4200
G53 G1 X-325.743 Y-147.129 F4200
G53 G1 X-316.840 Y-146.364 F4200
G53 G1 X-307.252 Y-146.425 F4200
G53 G1 X-297.087 Y-147.350 F4200
G53 G1 X-286.458 Y-149.167 F4200
G53 G1 X-275.481 Y-151.890 F4200
G53 G1 X-264.275 Y-155.523 F4200
G53 G1 X-252.959 Y-160.055 F4200
G53 G1 X-241.655 Y-165.463 F4200
G53 G1 X-230.478 Y-171.714 F4200
G53 G1 X-219.545 Y-178.759 F4200
G53 G1 X-208.964 Y-186.540 F4200
G53 G1 X-198.840 Y-194.988 F4200
G53 G1 X-189.268 Y-204.024 F4200
G53 G1 X-180.338 Y-213.558 F4200
G53 G1 X-172.128 Y-223.494 F4200
G53 G1 X-164.706 Y-233.730 F4200
G53 G1 X-158.130 Y-244.155 F4200
G53 G1 X-152.446 Y-254.656 F4200
G53 G1 X-147.686 Y-265.117 F4200
G53 G1 X-143.872 Y-275.421 F4200
G53 G1 X-141.011 Y-285.449 F4200
G53 G1 X-139.099 Y-295.086 F4200
G53 G1 X-138.119 Y-304.217 F4200
G53 G1 X-138.041 Y-312.734 F4200
G53 G1 X-138.825 Y-320.534 F4200
G53 G1 X-140.417 Y-327.519 F4200
G53 G1 X-142.755 Y-333.602 F4200
G53 G1 X-145.767 Y-338.705 F4200
G53 G1 X-149.373 Y-340.000 F4200
G53 G1 X-153.485 Y-340.000 F4200
G53 G1 X-158.008 Y-340.000 F4200
G53 G1 X-162.844 Y-340.000 F4200
G53 G1 X-167.891 Y-340.000 F4200
G53 G1 X-173.045 Y-340.000 F4200
G53 G1 X-178.202 Y-340.000 F4200
G53 G1 X-183.256 Y-338.492 F4200
G53 G1 X-188.107 Y-333.144 F4200
G53 G1 X-192.656 Y-326.691 F4200
G53 G1 X-196.811 Y-319.192 F4200
G53 G1 X-200.485 Y-310.715 F4200
G53 G1 X-203.598 Y-301.343 F4200
G53 G1 X-206.079 Y-291.164 F4200
G53 G1 X-207.868 Y-280.279 F4200
G53 G1 X-208.913 Y-268.793 F4200
G53 G1 X-209.174 Y-256.821 F4200
G53 G1 X-208.623 Y-244.478 F4200
G53 G1 X-207.244 Y-231.887 F4200
G53 G1 X-205.033 Y-219.171 F4200
G53 G1 X-201.998 Y-206.454 F4200
G53 G1 X-198.161 Y-193.858 F4200
G53 G1 X-193.555 Y-181.504 F4200
G53 G1 X-188.224 Y-169.509 F4200
G53 G1 X-182.224 Y-157.985 F4200
G53 G1 X-175.623 Y-147.035 F4200
G53 G1 X-168.497 Y-136.758 F4200
G53 G1 X-160.930 Y-127.242 F4200
G53 G1 X-153.016 Y-118.566 F4200
G53 G1 X-144.855 Y-110.797 F4200
G53 G1 X-136.550 Y-103.991 F4200
G53 G1 X-128.211 Y-98.193 F4200
G53 G1 X-119.949 Y-93.434 F4200
G53 G1 X-111.876 Y-89.733 F4200
G53 G1 X-104.104 Y-87.096 F4200
G53 G1 X-96.744 Y-85.514 F4200
G53 G1 X-89.903 Y-84.969 F4200
G53 G1 X-83.683 Y-85.427 F4200
G53 G1 X-78.180 Y-86.844 F4200
G53 G1 X-73.485 Y-89.164 F4200
G53 G1 X-69.678 Y-92.322 F4200
G53 G1 X-66.831 Y-96.241 F4200
G53 G1 X-65.004 Y-100.837 F4200
G53 G1 X-64.248 Y-106.020 F4200
G53 G1 X-64.601 Y-111.691 F4200
G53 G1 X-66.087 Y-117.748 F4200
G53 G1 X-68.720 Y-124.086 F4200
G53 G1 X-72.499 Y-130.597 F4200
G53 G1 X-77.409 Y-137.173 F4200
G53 G1 X-83.423 Y-143.707 F4200
G53 G1 X-90.502 Y-150.095 F4200
G53 G1 X-98.594 Y-156.234 F4200
G53 G1 X-107.632 Y-162.029 F4200
G53 G1 X-117.543 Y-167.390 F4200
G53 G1 X-128.241 Y-172.235 F4200
G53 G1 X-139.629 Y-176.491 F4200
G53 G1 X-151.605 Y-180.093 F4200
G53 G1 X-164.059 Y-182.988 F4200
G53 G1 X-176.873 Y-185.132 F4200
G53 G1 X-189.929 Y-186.495 F4200
G53 G1 X-203.101 Y-187.059 F4200
G53 G1 X-216.266 Y-186.816 F4200
G53 G1 X-229.299 Y-185.772 F4200
G53 G1 X-242.076 Y-183.946 F4200
G53 G1 X-254.476 Y-181.366 F4200
G53 G1 X-266.385 Y-178.076 F4200
G53 G1 X-277.691 Y-174.128 F4200
G53 G1 X-288.292 Y-169.585 F4200
G53 G1 X-298.091 Y-164.520 F4200
G53 G1 X-307.005 Y-159.015 F4200
G53 G1 X-314.957 Y-153.158 F4200
G53 G1 X-321.883 Y-147.045 F4200
G53 G1 X-327.732 Y-140.776 F4200
G53 G1 X-332.463 Y-134.455 F4200
G53 G1 X-336.050 Y-128.189 F4200
G53 G1 X-338.480 Y-122.085 F4200
G53 G1 X-339.752 Y-116.250 F4200
G53 G1 X-339.878 Y-110.790 F4200
G53 G1 X-338.886 Y-105.805 F4200
G53 G1 X-336.812 Y-101.394 F4200
G53 G1 X-333.709 Y-97.646 F4200
G53 G1 X-329.637 Y-94.646 F4200
G53 G1 X-324.668 Y-92.469 F4200
G53 G1 X-318.884 Y-91.181 F4200
G53 G1 X-312.376 Y-90.837 F4200
G53 G1 X-305.241 Y-91.482 F4200
G53 G1 X-297.581 Y-93.147 F4200
G53 G1 X-289.504 Y-95.853 F4200
G53 G1 X-281.123 Y-99.607 F4200
G53 G1 X-272.549 Y-104.403 F4200
G53 G1 X-263.896 Y-110.222 F4200
G53 G1 X-255.275 Y-117.034 F4200
G53 G1 X-246.796 Y-124.794 F4200
G53 G1 X-238.566 Y-133.445 F4200
G53 G1 X-230.683 Y-142.921 F4200
G53 G1 X-223.242 Y-153.142 F4200
G53 G1 X-216.329 Y-164.021 F4200
G53 G1 X-210.021 Y-175.460 F4200
G53 G1 X-204.386 Y-187.355 F4200
G53 G1 X-199.480 Y-199.594 F4200
G53 G1 X-195.349 Y-212.062 F4200
G53 G1 X-192.027 Y-224.637 F4200
G53 G1 X-189.536 Y-237.198 F4200
G53 G1 X-187.886 Y-249.621 F4200
G53 G1 X-187.072 Y-261.783 F4200
G53 G1 X-187.080 Y-273.563 F4200
G53 G1 X-187.882 Y-284.845 F4200
G53 G1 X-189.439 Y-295.515 F4200
G53 G1 X-191.700 Y-305.468 F4200
G53 G1 X-194.605 Y-314.605 F4200
G53 G1 X-198.084 Y-322.837 F4200
G53 G1 X-202.057 Y-330.082 F4200
G53 G1 X-206.439 Y-336.273 F4200
G53 G1 X-211.136 Y-340.000 F4200
G53 G1 X-216.051 Y-340.000 F4200
G53 G1 X-221.083 Y-340.000 F4200
G53 G1 X-226.129 Y-340.000 F4200
G53 G1 X-231.083 Y-340.000 F4200
G53 G1 X-235.842 Y-340.000 F4200
G53 G1 X-240.305 Y-340.000 F4200
G53 G1 X-244.371 Y-340.000 F4200
G53 G1 X-247.949 Y-339.207 F4200
G53 G1 X-250.949 Y-333.795 F4200
G53 G1 X-253.292 Y-327.402 F4200
G53 G1 X-254.904 Y-320.106 F4200
G53 G1 X-255.724 Y-311.997 F4200
G53 G1 X-255.699 Y-303.172 F4200
G53 G1 X-254.788 Y-293.734 F4200
G53 G1 X-252.960 Y-283.795 F4200
G53 G1 X-250.199 Y-273.467 F4200
G53 G1 X-246.499 Y-262.868 F4200
G53 G1 X-241.868 Y-252.117 F4200
G53 G1 X-236.327 Y-241.332 F4200
G53 G1 X-229.908 Y-230.629 F4200
G53 G1 X-222.658 Y-220.124 F4200
G53 G1 X-214.631 Y-209.925 F4200
G53 G1 X-205.897 Y-200.138 F4200
G53 G1 X-196.534 Y-190.858 F4200
G53 G1 X-186.628 Y-182.176 F4200
G53 G1 X-176.277 Y-174.171 F4200
G53 G1 X-165.584 Y-166.914 F4200
G53 G1 X-154.657 Y-160.464 F4200
G53 G1 X-143.610 Y-154.868 F4200
G53 G1 X-132.561 Y-150.161 F4200
G53 G1 X-121.628 Y-146.367 F4200
G53 G1 X-110.932 Y-143.497 F4200
G53 G1 X-100.589 Y-141.547 F4200
G53 G1 X-90.716 Y-140.505 F4200
G53 G1 X-81.425 Y-140.341 F4200
G53 G1 X-72.822 Y-141.019 F4200
G53 G1 X-65.006 Y-142.487 F4200
G53 G1 X-58.071 Y-144.685 F4200
G53 G1 X-52.097 Y-147.544 F4200
G53 G1 X-47.159 Y-150.984 F4200
G53 G0 Z-1.000
G53 G0 X-399 Y-379
M5
; end
